src/img/svg/like_card.svg

<svg width="29" height="29" viewBox="0 0 29 29" fill="none" xmlns="http://www.w3.org/2000/svg">
<path d="M13.0894 25.6387L13.0879 25.6373C9.33535 22.0556 6.29855 19.1511 4.18826 16.4336C2.09027 13.7319 1 11.3279 1 8.76337C1 4.55195 4.10778 1.36914 7.975 1.36914C10.1762 1.36914 12.3205 2.45318 13.725 4.17563L14.5 5.1261L15.275 4.17563C16.6795 2.45318 18.8238 1.36914 21.025 1.36914C24.8922 1.36914 28 4.55195 28 8.76337C28 11.3279 26.9097 13.7319 24.8117 16.4336C22.7014 19.1511 19.6646 22.0556 15.9121 25.6373L15.9106 25.6387L14.5 26.9904L13.0894 25.6387Z" fill="#FFE9EB" stroke="#FF3C43" stroke-width="2"/>
</svg>

<svg width="29" height="29" viewBox="0 0 29 29" fill="none" xmlns="http://www.w3.org/2000/svg"><path d="m13.09 25.639-.002-.002c-3.753-3.581-6.79-6.486-8.9-9.203C2.09 13.732 1 11.328 1 8.764c0-4.212 3.108-7.395 6.975-7.395 2.201 0 4.345 1.084 5.75 2.807l.775.95.775-.95c1.405-1.723 3.549-2.807 5.75-2.807C24.892 1.37 28 4.552 28 8.763c0 2.565-1.09 4.969-3.188 7.67-2.11 2.718-5.147 5.623-8.9 9.204l-.001.002L14.5 26.99l-1.41-1.351Z" fill="#FFE9EB" stroke="#FF3C43" stroke-width="2"/></svg>
